public/assets/therapy.svg

<svg width="870" height="567" viewBox="0 0 870 567" fill="none" xmlns="http://www.w3.org/2000/svg">
<path opacity="0.74707" fill-rule="evenodd" clip-rule="evenodd" d="M666.223 271.923L664.963 274.489C644.235 316.469 616.727 361.904 571.691 388.212C526.555 414.568 463.887 421.798 406.298 425.981L402.779 426.233C344.132 430.43 291.252 431.797 256.84 416.575C222.454 401.408 206.535 369.653 207.01 330.715C207.485 291.777 224.458 245.608 266.197 206.171C307.911 166.68 374.392 133.917 442.073 109.715C509.753 85.5133 578.504 69.8598 624.189 78.3168C669.798 86.88 692.214 119.545 696.518 155.162C700.798 190.722 686.992 229.288 666.223 271.923Z" fill="#CC857D" fill-opacity="0.5"/>
<path fill-rule="evenodd" clip-rule="evenodd" d="M714.412 145.585C696.42 145.585 689.877 124.639 679.656 113.145C672.342 104.921 659.861 107.374 656.167 95.8602C646.876 66.909 671.741 46.5325 704.179 46.5325C736.617 46.5325 758.489 64.4033 763.211 91.2679C767.934 118.132 746.849 145.585 714.412 145.585Z" fill="black"/>
<path fill-rule="evenodd" clip-rule="evenodd" d="M665.386 88.0688C656.264 104.603 657.348 146.543 669.137 149.499C673.839 150.677 683.854 147.79 694.048 141.816L687.65 185.834H725.431L712.425 126.883C719.678 118.603 724.587 108.457 723.767 97.0875C721.403 64.3279 674.508 71.5346 665.386 88.0688Z" fill="#57331F"/>
<path fill-rule="evenodd" clip-rule="evenodd" d="M663.119 88.1616C670.345 89.4805 684.896 96.1884 696.498 105.81C697.87 105.104 699.443 104.702 701.115 104.702C706.467 104.702 710.807 108.815 710.807 113.887C710.807 115.958 710.084 117.868 708.864 119.404C711.161 123.085 712.728 126.952 713.242 130.928C721.201 130.928 750.25 101.641 721.312 74.0867C692.373 46.5326 650.553 85.8676 663.119 88.1616Z" fill="black"/>
<path fill-rule="evenodd" clip-rule="evenodd" d="M793.715 377.182H672.102L656.166 567H837.198L793.715 377.182Z" fill="#C5CFD6"/>
<path fill-rule="evenodd" clip-rule="evenodd" d="M793.715 377.182H756.312L733.925 567H837.198L793.715 377.182Z" fill="black" fill-opacity="0.1"/>
<path fill-rule="evenodd" clip-rule="evenodd" d="M533.452 344.664L532.999 344.406C519.985 337.317 498.732 346.944 498.747 357.647C498.792 390.045 529.197 542.739 530.785 552.391C532.372 562.044 549.378 564.593 550.369 552.423C551.944 533.057 554.872 466.019 551.943 434.989C550.734 422.179 549.431 409.98 548.149 399.097C564.102 427.113 588.777 467.229 622.174 519.444L640.304 511.39C626.067 465.778 614.394 433.578 605.283 414.788C589.683 382.616 575.056 355.065 568.899 345.36C559.215 330.094 542.358 335.422 533.452 344.664Z" fill="#57331F"/>
<path fill-rule="evenodd" clip-rule="evenodd" d="M639.008 486.06L576.784 342.72C561.877 319.403 520.083 347.465 525.167 360.989C536.708 391.693 595.403 491.095 598.841 500.242L639.008 486.06Z" fill="#7D3336"/>
<path fill-rule="evenodd" clip-rule="evenodd" d="M642.463 502.351C646.339 505.454 648.861 507.988 650.028 509.953C651.447 512.344 653.109 516.062 655.013 521.109C652.161 522.71 626.53 537.1 578.121 564.278C572.309 558.976 571.403 554.861 575.404 551.932C579.405 549.003 582.707 546.532 585.309 544.521L611.849 508.963C612.36 508.279 613.344 508.127 614.048 508.623C614.06 508.632 614.072 508.64 614.084 508.649L619.598 512.778C624.657 512.349 628.432 511.435 630.924 510.036C632.948 508.899 635.272 506.535 637.895 502.942L637.895 502.942C638.902 501.563 640.867 501.239 642.285 502.218C642.346 502.26 642.406 502.304 642.463 502.351Z" fill="black"/>
<path fill-rule="evenodd" clip-rule="evenodd" d="M554.35 544.653C556.112 549.225 556.992 552.646 556.992 554.915C556.992 557.676 556.519 561.704 555.573 567C552.28 567 522.685 567 466.786 567C464.479 559.583 465.811 555.578 470.782 554.987C475.753 554.395 479.883 553.861 483.171 553.385L524.438 535.495C525.232 535.15 526.163 535.497 526.517 536.27C526.523 536.283 526.529 536.296 526.534 536.309L529.187 542.567C533.789 544.655 537.528 545.698 540.405 545.698C542.743 545.698 545.971 544.78 550.09 542.944V542.944C551.671 542.24 553.54 542.915 554.264 544.452C554.295 544.518 554.324 544.585 554.35 544.653Z" fill="black"/>
<path fill-rule="evenodd" clip-rule="evenodd" d="M494.386 368.661C494.386 409.329 514.247 504.192 514.26 513.147L556.992 513.179C550.737 428.533 548.52 385.755 550.338 384.843C553.067 383.475 662.186 395.437 694.913 395.437C742.104 395.437 761.627 366.498 763.211 312.889H669.726C650.691 314.87 551.406 334.344 514.533 341.038C498.747 343.904 494.386 357.457 494.386 368.661Z" fill="#B86767"/>
<path fill-rule="evenodd" clip-rule="evenodd" d="M808.91 255.408L774.44 255.534C800.694 338.248 814.63 381.556 816.249 385.457C819.892 394.236 812.183 407.605 808.887 414.789C819.623 419.461 818.479 402.16 832.022 408.287C844.384 413.88 853.788 424.013 868.07 415.444C869.826 414.39 871.75 410.423 867.101 407.323C855.518 399.6 838.827 386.083 836.572 381.634C833.496 375.567 824.276 333.492 808.91 255.408ZM590.848 293.694L546.255 335.997C533.28 341.379 522.649 347.322 514.361 353.826C512.498 356.012 510.469 360.2 519.237 358.326C528.006 356.452 537.316 354.863 538.964 357.636C540.612 360.409 535.756 364.659 538.802 368.288C540.832 370.707 547.661 363.012 559.288 345.201L605.66 318.615L590.848 293.694Z" fill="#57331F"/>
<path fill-rule="evenodd" clip-rule="evenodd" d="M703.873 160.319L690.26 158.049C668.817 231.759 558.642 282.003 551.878 309.557C549.398 319.662 556.876 324.771 553.013 327.849L570.706 340.444C573.703 337.044 580.097 343.262 593.449 338.913C606.801 334.563 703.873 247.598 703.873 160.319Z" fill="#95AB97"/>
<path fill-rule="evenodd" clip-rule="evenodd" d="M728.082 144.93L685.683 147.813C682.213 148.049 679.598 150.975 679.84 154.349L680.973 170.031C682.579 267.69 624.528 292.586 637.453 331.746C648.124 364.074 750.26 398.826 767.934 367.137C775.089 354.308 778.335 338.792 778.702 321.923C783.218 334.884 786.791 346.042 789.42 355.396C793.953 371.53 811.529 374.095 811.529 380.31L834.685 374.095C833.114 365.651 844.03 361.539 841.103 342.674C827.989 258.149 792.754 196.879 735.398 158.864L734.803 150.611C734.56 147.238 731.551 144.694 728.082 144.93Z" fill="#CEE5D0"/>
<path fill-rule="evenodd" clip-rule="evenodd" d="M189.441 28.9121C199.499 47.1382 198.304 93.37 185.305 96.6275C180.121 97.9266 169.078 94.7445 157.838 88.1586L164.892 136.681H123.235L137.575 71.6974C129.578 62.5708 124.165 51.3862 125.07 38.8536C127.676 2.74202 179.383 10.6861 189.441 28.9121Z" fill="#915B3C"/>
<path fill-rule="evenodd" clip-rule="evenodd" d="M193.374 37.0956C192.961 34.7331 191.953 32.1097 191.139 29.8745C190.09 26.9932 188.502 24.3953 186.755 21.9468C183.466 17.3372 179.52 13.1745 175.164 9.71964C167.206 3.40898 157.076 -0.231033 147.114 0.951066C142.085 1.54786 137.202 3.413 133.046 6.51745C129.292 9.32235 125.68 13.4514 120.819 13.748C115.529 14.0706 110.68 9.53134 106.437 6.72788C101.654 3.56738 96.5648 1.26441 90.974 0.369216C81.6083 -1.12997 72.8098 1.9463 66.3551 9.41664C59.4864 17.3662 54.4934 29.0242 59.0041 39.5573C59.8426 41.5153 60.9212 43.166 62.4693 44.534C63.889 45.7886 66.0573 47.1233 66.633 49.1279C67.2444 51.2587 65.4179 54.0075 64.7097 55.9301C63.6951 58.6847 62.862 61.5762 63.1581 64.5702C63.6448 69.4872 66.8232 74.1811 70.1794 77.4129C73.5948 80.7016 77.7983 82.5874 82.288 83.4568C85.2859 84.0372 88.3498 84.3574 91.3966 84.1395C92.9092 84.0314 94.2439 83.6229 95.7094 83.2981C97.1345 82.9822 97.931 83.3501 99.1401 84.1099C104.757 87.6401 110.796 89.0059 117.282 88.481C122.756 88.0377 129.065 86.7481 133.53 83.102C138.489 79.0527 138.39 73.4687 137.223 67.5028C138.459 68.0984 141.88 68.4672 139.836 66.093C139.026 65.1526 137.496 64.77 136.458 64.2169C135.248 63.573 134.02 62.7407 133.08 61.6903C129.288 57.4489 133.118 48.8171 137.885 47.3947C144.968 45.2815 146.554 55.0191 151.61 57.538C154.517 58.9863 157.558 57.0067 159.736 54.9855C162.653 52.2778 164.641 48.6907 166.358 45.0403C167.772 42.0342 169.088 38.9858 170.529 35.9946C171.202 34.5978 173.532 30.649 172.362 29.0696C177.435 28.0861 183.085 30.1356 187.454 32.8232C189.26 33.9343 190.637 35.1592 191.6 37.1206C191.806 37.5409 192.256 38.7903 192.82 38.8415C193.87 38.9369 193.477 37.6893 193.374 37.0956Z" fill="#251604"/>
<path fill-rule="evenodd" clip-rule="evenodd" d="M47.9449 347.609H182.036L199.607 556.849H0L47.9449 347.609Z" fill="#C5CFD6"/>
<path fill-rule="evenodd" clip-rule="evenodd" d="M47.9449 347.609H89.1857L113.869 556.849H0L47.9449 347.609Z" fill="black" fill-opacity="0.1"/>
<path fill-rule="evenodd" clip-rule="evenodd" d="M336.885 340.018C345.698 362.206 361.085 435.106 379.573 545.218L358.44 551.212C336.201 503.36 320.118 461.692 313.662 439.708C302.608 402.066 294.199 368.943 292.074 356.573C287.006 327.076 331.061 325.359 336.885 340.018ZM270.213 401.875C205.876 410.877 114.666 420.173 106.861 421.216C95.9208 422.679 87.654 405.966 100.478 401.038C120.882 393.197 192.338 368.659 226.801 361.717C236.704 359.723 246.303 357.869 255.327 356.195C282.15 351.216 296.047 398.261 270.213 401.875Z" fill="#915B3C"/>
<path fill-rule="evenodd" clip-rule="evenodd" d="M174.547 276.737C281.324 303.188 335.886 320.14 338.235 327.592C338.262 327.675 338.285 327.758 338.307 327.841C338.362 327.906 338.413 327.973 338.463 328.04C359.624 356.333 372.297 494.46 376.457 504.802L335.908 510.683C320.397 454.765 270.771 415.811 272.089 348.839C271.733 346.875 271.643 345.012 271.79 343.25L161.421 288.628V276.737H174.547Z" fill="#7D3336"/>
<path fill-rule="evenodd" clip-rule="evenodd" d="M180.412 276.737C195.882 281.057 276.279 313.835 317.993 331.268C345.6 342.806 336.899 384.399 321.265 395.226C321.18 395.889 320.898 396.341 320.396 396.544C236.294 430.432 169.761 412.651 147.535 418.332L137.254 386.805L170.589 375.688C160.491 373.723 151.192 371.969 143.235 370.612C91.8346 361.847 76.8458 335.098 85.708 276.737H180.412Z" fill="#B86767"/>
<path fill-rule="evenodd" clip-rule="evenodd" d="M107.454 396.027C101.944 396.539 98.032 397.344 95.7189 398.441C92.9057 399.775 89.0291 402.177 84.0892 405.647C85.6809 408.82 99.986 437.334 127.004 491.189C135.679 489.827 139.116 486.609 137.316 481.534C135.516 476.459 134.064 472.222 132.961 468.824L131.246 420.42C131.213 419.489 130.41 418.76 129.452 418.792C129.435 418.792 129.419 418.793 129.402 418.794L121.743 419.262C117.391 415.837 114.52 412.739 113.129 409.967C111.999 407.715 111.375 404.161 111.255 399.306L111.255 399.306C111.209 397.442 109.618 395.968 107.701 396.013C107.619 396.014 107.536 396.019 107.454 396.027Z" fill="black"/>
<path fill-rule="evenodd" clip-rule="evenodd" d="M348.319 542.34C346.377 547.38 345.406 551.15 345.406 553.652C345.406 556.695 345.928 561.135 346.971 566.973C350.602 566.973 383.234 566.973 444.868 566.973C447.412 558.797 445.943 554.383 440.462 553.731C434.981 553.079 430.428 552.49 426.802 551.965L381.301 532.244C380.425 531.865 379.399 532.247 379.009 533.098C379.002 533.113 378.996 533.128 378.989 533.142L376.064 540.04C370.99 542.341 366.867 543.492 363.695 543.492C361.117 543.492 357.558 542.48 353.016 540.456L353.016 540.456C351.274 539.679 349.213 540.423 348.414 542.118C348.38 542.191 348.348 542.265 348.319 542.34Z" fill="black"/>
<path fill-rule="evenodd" clip-rule="evenodd" d="M339.429 177.867C346.949 176.362 365.305 163.09 368.467 165.785C373.147 169.771 368.974 182.013 364.059 188.102C354.871 199.483 347.264 203.375 328.463 208.471C318.632 211.136 308.004 216.477 296.577 224.495L295.07 198.677L321.534 184.543C325.247 170.807 329.686 163.896 334.85 163.81C338.817 162.015 331.908 179.372 339.429 177.867ZM293.881 119.033C289.022 127.418 284.299 136.449 286.774 139.033C289.25 141.616 295.423 138.007 298.376 142.299C300.345 145.16 289.799 149.68 266.738 155.859L222.962 194.825L200.714 171.611L260.96 139.532C270.979 127.966 280.85 118.984 290.573 112.584C293.544 111.378 298.74 110.649 293.881 119.033Z" fill="#784931"/>
<mask id="mask0" style="mask-type:alpha" maskUnits="userSpaceOnUse" x="163" y="147" width="100" height="53">
<path fill-rule="evenodd" clip-rule="evenodd" d="M173.325 158.196C194.203 161.191 222.693 161.191 255.33 147.457L262.863 174.5C239.192 191.086 207.787 202.873 182.75 198.313C163.019 194.721 156.686 169.855 173.325 158.196Z" fill="white"/>
</mask>
<g mask="url(#mask0)">
<path fill-rule="evenodd" clip-rule="evenodd" d="M171.374 164.465C192.476 164.248 220.616 159.915 250.641 141.387L262.433 166.951C241.722 186.933 212.601 203.35 187.138 202.655C167.072 202.107 156.816 178.511 171.374 164.465Z" fill="#BB9C66"/>
</g>
<mask id="mask1" style="mask-type:alpha" maskUnits="userSpaceOnUse" x="59" y="99" width="272" height="245">
<path fill-rule="evenodd" clip-rule="evenodd" d="M172.779 99.5578C175.436 132.747 188.811 169.325 199.787 205.461C222.189 210.894 259.757 204.489 312.49 186.246C325.57 212.553 331.616 231.308 330.629 242.511C285.387 265.487 246.611 275.728 214.666 276.402C215.694 294.822 213.387 312.359 205.636 328.382C189.704 361.318 96.4098 330.816 65.0415 336.819C45.3978 274.799 83.3795 249.594 83.4101 209.909C83.4435 166.451 119.337 99.5578 124.618 99.5578H172.779Z" fill="white"/>
</mask>
<g mask="url(#mask1)">
<path fill-rule="evenodd" clip-rule="evenodd" d="M172.779 99.5578C175.436 132.747 188.811 169.325 199.787 205.461C222.189 210.894 259.757 204.489 312.49 186.246C325.57 212.553 331.616 231.308 330.629 242.511C285.387 265.487 246.611 275.728 214.666 276.402C215.694 294.822 213.387 312.359 205.636 328.382C189.704 361.318 96.4098 330.816 65.0415 336.819C45.3978 274.799 83.3795 249.594 83.4101 209.909C83.4435 166.451 119.337 99.5578 124.618 99.5578H172.779Z" fill="#F7D59C"/>
</g>
</svg>

<svg width="870" height="567" fill="none" xmlns="http://www.w3.org/2000/svg"><path opacity=".747" fill-rule="evenodd" clip-rule="evenodd" d="m666.223 271.923-1.26 2.566c-20.728 41.98-48.236 87.415-93.272 113.723-45.136 26.356-107.804 33.586-165.393 37.769l-3.519.252c-58.647 4.197-111.527 5.564-145.939-9.658-34.386-15.167-50.305-46.922-49.83-85.86.475-38.938 17.448-85.107 59.187-124.544 41.714-39.491 108.195-72.254 175.876-96.456 67.68-24.202 136.431-39.855 182.116-31.398 45.609 8.563 68.025 41.228 72.329 76.845 4.28 35.56-9.526 74.126-30.295 116.761Z" fill="#CC857D" fill-opacity=".5"/><path fill-rule="evenodd" clip-rule="evenodd" d="M714.412 145.585c-17.992 0-24.535-20.946-34.756-32.44-7.314-8.224-19.795-5.771-23.489-17.285-9.291-28.951 15.574-49.328 48.012-49.328s54.31 17.871 59.032 44.736c4.723 26.864-16.362 54.317-48.799 54.317Z" fill="#000"/><path fill-rule="evenodd" clip-rule="evenodd" d="M665.386 88.069c-9.122 16.534-8.038 58.474 3.751 61.43 4.702 1.178 14.717-1.709 24.911-7.683l-6.398 44.018h37.781l-13.006-58.951c7.253-8.28 12.162-18.426 11.342-29.795-2.364-32.76-49.259-25.553-58.381-9.02Z" fill="#57331F"/><path fill-rule="evenodd" clip-rule="evenodd" d="M663.119 88.162c7.226 1.319 21.777 8.026 33.379 17.648a10.071 10.071 0 0 1 4.617-1.108c5.352 0 9.692 4.113 9.692 9.185a8.832 8.832 0 0 1-1.943 5.517c2.297 3.681 3.864 7.548 4.378 11.524 7.959 0 37.008-29.287 8.07-56.841-28.939-27.554-70.759 11.78-58.193 14.075Z" fill="#000"/><path fill-rule="evenodd" clip-rule="evenodd" d="M793.715 377.182H672.102L656.166 567h181.032l-43.483-189.818Z" fill="#C5CFD6"/><path fill-rule="evenodd" clip-rule="evenodd" d="M793.715 377.182h-37.403L733.925 567h103.273l-43.483-189.818Z" fill="#000" fill-opacity=".1"/><path fill-rule="evenodd" clip-rule="evenodd" d="m533.452 344.664-.453-.258c-13.014-7.089-34.267 2.538-34.252 13.241.045 32.398 30.45 185.092 32.038 194.744 1.587 9.653 18.593 12.202 19.584.032 1.575-19.366 4.503-86.404 1.574-117.434a1575.583 1575.583 0 0 0-3.794-35.892c15.953 28.016 40.628 68.132 74.025 120.347l18.13-8.054c-14.237-45.612-25.91-77.812-35.021-96.602-15.6-32.172-30.227-59.723-36.384-69.428-9.684-15.266-26.541-9.938-35.447-.696Z" fill="#57331F"/><path fill-rule="evenodd" clip-rule="evenodd" d="m639.008 486.06-62.224-143.34c-14.907-23.317-56.701 4.745-51.617 18.269 11.541 30.704 70.236 130.106 73.674 139.253l40.167-14.182Z" fill="#7D3336"/><path fill-rule="evenodd" clip-rule="evenodd" d="M642.463 502.351c3.876 3.103 6.398 5.637 7.565 7.602 1.419 2.391 3.081 6.109 4.985 11.156l-76.892 43.169c-5.812-5.302-6.718-9.417-2.717-12.346 4.001-2.929 7.303-5.4 9.905-7.411l26.54-35.558a1.605 1.605 0 0 1 2.199-.34l.036.026 5.514 4.129c5.059-.429 8.834-1.343 11.326-2.742 2.024-1.137 4.348-3.501 6.971-7.094 1.007-1.379 2.972-1.703 4.39-.724.061.042.121.086.178.133ZM554.35 544.653c1.762 4.572 2.642 7.993 2.642 10.262 0 2.761-.473 6.789-1.419 12.085h-88.787c-2.307-7.417-.975-11.422 3.996-12.013 4.971-.592 9.101-1.126 12.389-1.602l41.267-17.89c.794-.345 1.725.002 2.079.775l.017.039 2.653 6.258c4.602 2.088 8.341 3.131 11.218 3.131 2.338 0 5.566-.918 9.685-2.754 1.581-.704 3.45-.029 4.174 1.508.031.066.06.133.086.201Z" fill="#000"/><path fill-rule="evenodd" clip-rule="evenodd" d="M494.386 368.661c0 40.668 19.861 135.531 19.874 144.486l42.732.032c-6.255-84.646-8.472-127.424-6.654-128.336 2.729-1.368 111.848 10.594 144.575 10.594 47.191 0 66.714-28.939 68.298-82.548h-93.485c-19.035 1.981-118.32 21.455-155.193 28.149-15.786 2.866-20.147 16.419-20.147 27.623Z" fill="#B86767"/><path fill-rule="evenodd" clip-rule="evenodd" d="m808.91 255.408-34.47.126c26.254 82.714 40.19 126.022 41.809 129.923 3.643 8.779-4.066 22.148-7.362 29.332 10.736 4.672 9.592-12.629 23.135-6.502 12.362 5.593 21.766 15.726 36.048 7.157 1.756-1.054 3.68-5.021-.969-8.121-11.583-7.723-28.274-21.24-30.529-25.689-3.076-6.067-12.296-48.142-27.662-126.226Zm-218.062 38.286-44.593 42.303c-12.975 5.382-23.606 11.325-31.894 17.829-1.863 2.186-3.892 6.374 4.876 4.5 8.769-1.874 18.079-3.463 19.727-.69 1.648 2.773-3.208 7.023-.162 10.652 2.03 2.419 8.859-5.276 20.486-23.087l46.372-26.586-14.812-24.921Z" fill="#57331F"/><path fill-rule="evenodd" clip-rule="evenodd" d="m703.873 160.319-13.613-2.27c-21.443 73.71-131.618 123.954-138.382 151.508-2.48 10.105 4.998 15.214 1.135 18.292l17.693 12.595c2.997-3.4 9.391 2.818 22.743-1.531 13.352-4.35 110.424-91.315 110.424-178.594Z" fill="#95AB97"/><path fill-rule="evenodd" clip-rule="evenodd" d="m728.082 144.93-42.399 2.883c-3.47.236-6.085 3.162-5.843 6.536l1.133 15.682c1.606 97.659-56.445 122.555-43.52 161.715 10.671 32.328 112.807 67.08 130.481 35.391 7.155-12.829 10.401-28.345 10.768-45.214 4.516 12.961 8.089 24.119 10.718 33.473 4.533 16.134 22.109 18.699 22.109 24.914l23.156-6.215c-1.571-8.444 9.345-12.556 6.418-31.421-13.114-84.525-48.349-145.795-105.705-183.81l-.595-8.253c-.243-3.373-3.252-5.917-6.721-5.681Z" fill="#CEE5D0"/><path fill-rule="evenodd" clip-rule="evenodd" d="M189.441 28.912c10.058 18.226 8.863 64.458-4.136 67.716-5.184 1.299-16.227-1.883-27.467-8.47l7.054 48.523h-41.657l14.34-64.984c-7.997-9.126-13.41-20.31-12.505-32.843 2.606-36.112 54.313-28.168 64.371-9.942Z" fill="#915B3C"/><path fill-rule="evenodd" clip-rule="evenodd" d="M193.374 37.096c-.413-2.363-1.421-4.986-2.235-7.221-1.049-2.882-2.637-5.48-4.384-7.928-3.289-4.61-7.235-8.772-11.591-12.227-7.958-6.311-18.088-9.951-28.05-8.769-5.029.597-9.912 2.462-14.068 5.566-3.754 2.805-7.366 6.934-12.227 7.231-5.29.323-10.139-4.217-14.382-7.02-4.783-3.16-9.872-5.464-15.463-6.359C81.608-1.13 72.81 1.946 66.355 9.417c-6.869 7.95-11.862 19.607-7.35 30.14.838 1.958 1.916 3.609 3.464 4.977 1.42 1.255 3.588 2.59 4.164 4.594.611 2.13-1.215 4.88-1.923 6.802-1.015 2.755-1.848 5.646-1.552 8.64.487 4.917 3.665 9.611 7.021 12.843 3.416 3.289 7.62 5.174 12.109 6.044 2.998.58 6.062.9 9.109.683 1.512-.109 2.847-.517 4.312-.842 1.425-.316 2.222.052 3.431.812 5.617 3.53 11.656 4.896 18.142 4.371 5.474-.443 11.783-1.733 16.248-5.379 4.959-4.05 4.86-9.633 3.693-15.6 1.236.596 4.657.965 2.613-1.409-.81-.94-2.34-1.323-3.378-1.876-1.21-.644-2.438-1.476-3.378-2.527-3.792-4.241.038-12.873 4.805-14.295 7.083-2.114 8.669 7.624 13.725 10.143 2.907 1.448 5.948-.531 8.126-2.552 2.917-2.708 4.905-6.295 6.622-9.946 1.414-3.006 2.73-6.054 4.171-9.045.673-1.397 3.003-5.346 1.833-6.925 5.073-.984 10.723 1.066 15.092 3.753 1.806 1.111 3.183 2.336 4.146 4.298.206.42.656 1.67 1.22 1.72 1.05.096.657-1.152.554-1.745Z" fill="#251604"/><path fill-rule="evenodd" clip-rule="evenodd" d="M47.945 347.609h134.091l17.571 209.24H0l47.945-209.24Z" fill="#C5CFD6"/><path fill-rule="evenodd" clip-rule="evenodd" d="M47.945 347.609h41.24l24.684 209.24H0l47.945-209.24Z" fill="#000" fill-opacity=".1"/><path fill-rule="evenodd" clip-rule="evenodd" d="M336.885 340.018c8.813 22.188 24.2 95.088 42.688 205.2l-21.133 5.994c-22.239-47.852-38.322-89.52-44.778-111.504-11.054-37.642-19.463-70.765-21.588-83.135-5.068-29.497 38.987-31.214 44.811-16.555Zm-66.672 61.857c-64.337 9.002-155.547 18.298-163.352 19.341-10.94 1.463-19.207-15.25-6.383-20.178 20.404-7.841 91.86-32.379 126.323-39.321a1911.798 1911.798 0 0 1 28.526-5.522c26.823-4.979 40.72 42.066 14.886 45.68Z" fill="#915B3C"/><path fill-rule="evenodd" clip-rule="evenodd" d="M174.547 276.737c106.777 26.451 161.339 43.403 163.688 50.855.027.083.05.166.072.249.055.065.106.132.156.199 21.161 28.293 33.834 166.42 37.994 176.762l-40.549 5.881c-15.511-55.918-65.137-94.872-63.819-161.844-.356-1.964-.446-3.827-.299-5.589l-110.369-54.622v-11.891h13.126Z" fill="#7D3336"/><path fill-rule="evenodd" clip-rule="evenodd" d="M180.412 276.737c15.47 4.32 95.867 37.098 137.581 54.531 27.607 11.538 18.906 53.131 3.272 63.958-.085.663-.367 1.115-.869 1.318-84.102 33.888-150.635 16.107-172.861 21.788l-10.281-31.527 33.335-11.117c-10.098-1.965-19.397-3.719-27.354-5.076-51.4-8.765-66.39-35.514-57.527-93.875h94.704Z" fill="#B86767"/><path fill-rule="evenodd" clip-rule="evenodd" d="M107.454 396.027c-5.51.512-9.422 1.317-11.735 2.414-2.813 1.334-6.69 3.736-11.63 7.206l42.915 85.542c8.675-1.362 12.112-4.58 10.312-9.655-1.8-5.075-3.252-9.312-4.355-12.71l-1.715-48.404c-.033-.931-.836-1.66-1.794-1.628l-.05.002-7.659.468c-4.352-3.425-7.223-6.523-8.614-9.295-1.13-2.252-1.754-5.806-1.874-10.661-.046-1.864-1.637-3.338-3.554-3.293a2.92 2.92 0 0 0-.247.014ZM348.319 542.34c-1.942 5.04-2.913 8.81-2.913 11.312 0 3.043.522 7.483 1.565 13.321h97.897c2.544-8.176 1.075-12.59-4.406-13.242-5.481-.652-10.034-1.241-13.66-1.766l-45.501-19.721c-.876-.379-1.902.003-2.292.854l-.02.044-2.925 6.898c-5.074 2.301-9.197 3.452-12.369 3.452-2.578 0-6.137-1.012-10.679-3.036-1.742-.777-3.803-.033-4.602 1.662a3.611 3.611 0 0 0-.095.222Z" fill="#000"/><path fill-rule="evenodd" clip-rule="evenodd" d="M339.429 177.867c7.52-1.505 25.876-14.777 29.038-12.082 4.68 3.986.507 16.228-4.408 22.317-9.188 11.381-16.795 15.273-35.596 20.369-9.831 2.665-20.459 8.006-31.886 16.024l-1.507-25.818 26.464-14.134c3.713-13.736 8.152-20.647 13.316-20.733 3.967-1.795-2.942 15.562 4.579 14.057Zm-45.548-58.834c-4.859 8.385-9.582 17.416-7.107 20 2.476 2.583 8.649-1.026 11.602 3.266 1.969 2.861-8.577 7.381-31.638 13.56l-43.776 38.966-22.248-23.214 60.246-32.079c10.019-11.566 19.89-20.548 29.613-26.948 2.971-1.206 8.167-1.935 3.308 6.449Z" fill="#784931"/><mask id="a" style="mask-type:alpha" maskUnits="userSpaceOnUse" x="163" y="147" width="100" height="53"><path fill-rule="evenodd" clip-rule="evenodd" d="M173.325 158.196c20.878 2.995 49.368 2.995 82.005-10.739l7.533 27.043c-23.671 16.586-55.076 28.373-80.113 23.813-19.731-3.592-26.064-28.458-9.425-40.117Z" fill="#fff"/></mask><g mask="url(#a)"><path fill-rule="evenodd" clip-rule="evenodd" d="M171.374 164.465c21.102-.217 49.242-4.55 79.267-23.078l11.792 25.564c-20.711 19.982-49.832 36.399-75.295 35.704-20.066-.548-30.322-24.144-15.764-38.19Z" fill="#BB9C66"/></g><mask id="b" style="mask-type:alpha" maskUnits="userSpaceOnUse" x="59" y="99" width="272" height="245"><path fill-rule="evenodd" clip-rule="evenodd" d="M172.779 99.558c2.657 33.189 16.032 69.767 27.008 105.903 22.402 5.433 59.97-.972 112.703-19.215 13.08 26.307 19.126 45.062 18.139 56.265-45.242 22.976-84.018 33.217-115.963 33.891 1.028 18.42-1.279 35.957-9.03 51.98-15.932 32.936-109.226 2.434-140.594 8.437-19.644-62.02 18.337-87.225 18.368-126.91.034-43.458 35.927-110.351 41.208-110.351h48.161Z" fill="#fff"/></mask><g mask="url(#b)"><path fill-rule="evenodd" clip-rule="evenodd" d="M172.779 99.558c2.657 33.189 16.032 69.767 27.008 105.903 22.402 5.433 59.97-.972 112.703-19.215 13.08 26.307 19.126 45.062 18.139 56.265-45.242 22.976-84.018 33.217-115.963 33.891 1.028 18.42-1.279 35.957-9.03 51.98-15.932 32.936-109.226 2.434-140.594 8.437-19.644-62.02 18.337-87.225 18.368-126.91.034-43.458 35.927-110.351 41.208-110.351h48.161Z" fill="#F7D59C"/></g></svg>
